X: 1
T:Dumbartons Drums  "CYMRU"
M:C|
L:1/8
Q:80
C:
S:March
K:HP
|: d3/4e/4|
{g}f3/2g/4{a}f/4a3/4{fg}f3/4e/4|
{Gdc}da{g}ag/4f3/4|  !
{gef}e{GdG}e3/4f/4{a}g3/4f/4{g}e3/4d/4|
{g}B3/2{GdGe}B/2{gBd}B{g}A3/4B/4| |
{Gdc}de{g}f3/4e/4{g}d3/4B/4|  !
{g}A3/4f/4{g}A3/4B/4{Gdc}d2|
{gef}e{GdG}e3/4f/4a3/4f/4{g}e3/4d/4|
{g}B3/2{GdGe}B/2{gBd}B:| |:  !
{g}A3/4B/4|
{Gdc}d2{gdG}d3/4e/4{g}f/2e/4|
{Gdc}df{a}g3/4f/4{g}e3/4d/4|  !
{gef}e{GdG}e3/4f/4{a}g3/4f/4{g}e3/4d/4|
{gBd}Be{A}e{g}d3/4B/4| |
{g}A3/4B/4{Gdc}d3/4e/4{g}f3/4e/4{g}d3/4B/4|  !
{g}A/4f3/4{g}A/4B3/4{Gdc}d2|
{gef}e{GdG}e3/4f/4a3/4f/4{g}e3/4d/4|
{g}B3/2{GdGe}B/2{gBd}B:|  !
